X: 36
T:Ward's Hornpipe. WI.036
M:C|
Q:160
S:Wm Irwin, 1838 MS, AGG's Transcription
R:Hornpipe
O:England
A:Lake District
Z:vmp.Chris Partington.2005
K:G
d2|g2dc BGBd|cdBc ABFD|GFEB cBAG|FGAF D2d/e/f|!
g2dc BGBd|cdBc ABFD|GFEc BcAF|G2G2 G2:|!
|:Bc|dgBg dgbg|caBg AgaB|cdBc ABGB|FGEF D2Bc|!
dgBg dgbg|caBg AgaA|GBdB cAaf|g2g2 g2:|]
